X:1
T:The Gospel Bells
T:The Gospel Bells
T:Samuel Wesley Martin
T:Samuel Wesley Martin, 1877
T:Public Domain Courtesy of the Cyber Hymnal™
T:Public Domain Courtesy of the Cyber Hymnal™
C:Samuel Wesley Martin
Z:Public Domain
Z:Courtesy of the Cyber Hymnal™
%%score ( 1 2 ) ( 3 4 )
L:1/8
Q:1/4=110
M:4/4
K:F
V:1 treble 
V:2 treble 
V:3 bass 
V:4 bass 
V:1
 C2 | [CF]2 [CF]2 [CF]2 [FA]2 | [Fd]2 [Fc]4 [Fc][Fc] | [Fd]2 [Fc]2 F2 [EG]2 | [FA]6 [FA][Ac] | %5
w: 1.~The|Gos- pel bells are|ring- ing, O- ver|land, from sea to|sea: Bless- èd|
w: 2.~The|Gos- pel bells in-|vite us To a|feast pre- pared for|all; Do not|
w: 3.~The|Gos- pel bells give|warn- ing, As they|sound from day to|day, Of the|
w: 4.~The|Gos- pel bells are|joy- ful, As they|e- cho far and|wide, Bear- ing|
 [GB]2 [EG]2 [FA]2 [CF]2 | [EG]2 [Ec]4 [Ec][Ec] | [Ge]2 [Fd]2 [Ec]2 [D=B]2 | [Ec]6 C2 | %9
w: news of free sal-|va- tion Do they|of- fer you and|me. “For|
w: slight the in- vi-|ta- tion, Nor re-|ject the gra- cious|call. “I|
w: fate which doth a-|wait them Who for-|ev- er will de-|lay. “Es-|
w: notes of per- fect|par- don, Thro’ a|Sav- ior cru- ci-|fied. “Good|
 [CF]2 [CF]2 [DF]2 [DF]2 | [CF]6 F[FA] | [EG]2 [EG]2 [DG]2 [DG]2 | [EG]6 [EA][EG] | %13
w: God so loved the|world That His|on- ly Son He|gave; Who- so-|
w: am the Bread of|life; Eat of|Me, thou hun- gry|soul; Tho’ your|
w: cape ye, for thy|life; Tar- ry|not in all the|plain, Nor be-|
w: tid- ings of great|joy To all|peo- ple do I|bring, Un- to|
 [DF]2 [DF]2 [_EF]2 [EF]2 | [DF]2 [DF]4 [DF][FG] | [FA]2 [GB]2 [FA]2 [EG]2 | F6 ||"^Refrain" A>F | %18
w: e’er be- liev- eth|in Him Ev- er-|last- ing life shall|have.”||
w: sins be red as|crim- son, They shall|be as white as|wool.”|Gos- pel|
w: hind thee look, oh,|ne- ver, Lest thou|be con- sumed in|pain.”||
w: you is born a|Sav- ior, Which is|Christ the Lord and|King.”||
 (z2 B>)G x6 | (z2 [Fc])[Fc] x6 | [Fd]2 [Fc]2 F2 [EG]2 | [FA]6 A>F | (z2 c>)A x6 | %23
w: |||||
w: * bells,|* how|they ring; O- ver|land from sea|* to|
w: |||||
w: |||||
 (z2 !fermata!A2) F[EG] x3 | [FA]2 (cB) [FA]2 [EG]2 | F6 |] %26
w: |||
w: * sea; Gos-|pel bells * free- ly|bring|
w: |||
w: |||
V:2
 C2 | x8 | x8 | x4 F2 x2 | x8 | x8 | x8 | x8 | x6 C2 | x8 | x6 F x | x8 | x8 | x8 | x8 | x8 | F6 || %17
 x2 | (c6 E>F G2) | (c6 F>G A2) | x4 F2 x2 | x8 | c6 (E>F G2) | (f6 F>GF) | x2 G2 x4 | F6 |] %26
V:3
 C,2 | [F,A,]2 [F,A,]2 [F,A,]2 [F,C]2 | [F,C]2 [F,A,]4 [F,A,][F,A,] | %3
w: ~|~ ~ ~ ~|~ ~ ~ ~|
 [F,B,]2 [F,A,]2 [D,A,]2 [C,C]2 | [F,C]6 [F,C][F,C] | [C,C]2 [C,C]2 [F,C]2 [F,A,]2 | %6
w: ~ ~ ~ ~|~ ~ ~|~ ~ ~ ~|
 [C,C]2 [C,G,]4 [C,C][C,C] | [C,C]2 [F,A,]2 G,2 [G,,G,]2 | [C,G,]6 [C,C]2 | %9
w: ~ ~ ~ ~|~ ~ ~ ~|~ ~|
 [F,A,]2 [F,A,]2 [B,,B,]2 [B,,B,]2 | [F,A,]6 [A,C][F,C] | [C,C]2 [C,C]2 [G,,=B,]2 [G,,B,]2 | %12
w: ~ ~ ~ ~|~ ~ ~|~ ~ ~ ~|
 [C,C]6 [C,C][C,B,] | [D,A,]2 [D,A,]2 [C,A,]2 [C,A,]2 | [B,,B,]2 [B,,B,]4 [B,,B,][B,,D] | %15
w: ~ ~ ~|~ ~ ~ ~|~ ~ ~ ~|
 [F,C]2 [B,,D]2 [C,C]2 [C,B,]2 | [F,A,]6 || z2 | z2 [C,G,]>[C,A,] [C,B,]2 z2 x2 | %19
w: ~ ~ ~ ~|~||Gos- pel bells,|
 z2 [F,A,]>[F,B,] [F,C]2 [F,A,][F,A,] x2 | [F,B,]2 [F,A,]2 [D,A,]2 [C,C]2 | [F,C]6 z2 | %22
w: ~ ~ ~ ~ ~|~ ~ ~ ~|~|
 z2 [C,G,]>[C,A,] [C,B,]2 z2 x2 | z2 [F,A,]>[F,B,] !fermata![F,C]2 [A,,C][C,C] x | %24
w: Gos- pel bells||
 [F,C]2 [B,,D]2 [C,C]2 [C,B,]2 | [F,A,]6 |] %26
w: ||
V:4
 C,2 | x8 | x8 | x8 | x8 | x8 | x8 | x4 G,2 x2 | x8 | x8 | x8 | x8 | x8 | x8 | x8 | x8 | x6 || x2 | %18
 x10 | x10 | x8 | x8 | x10 | x9 | x8 | x6 |] %26

